X:52
T:Bonnie Annie
R:Reel
B:The Athole Collection
M:C|
L:1/8
K:A Minor
B/c/|A/A/A AG EGGc|A/A/A AB cded|cBcG EGGc|A/A/A e^g aAA:|
g|e/f/g ce ecge|BGdG Bcdf|ecgc egca|gede cAAg|agea gced|cAGc EcGc|
AcGA cdea|gede cAA||

